!!!COM: Beethoven
!!!OTL: 24 Variationen uber Venni Amore von V. Righini
!!!Variation: Variation 1 b
**kern
*clefF4
*k[f#c#]
*M2/4
*D:
=17
*
(4ff#
8cc#L
8eeJ
=18
4dd
8a#L
8cc#J
=19
4b
8ddL
8bJ
=20
8bL
8aJ
8f#L
8dJ)
*
=21
4A
.
8f#
8d
=22
*
(4g
.
8eL
[8aJ
=23
8aL]
8cc#J
8ddL)
[8f#J
=24
8f#L]
8gJ
4e
.
=25
8eL
8b^J
[4a
.
=26
8aL]
8ee^J
[4dd
.
=27
(8ddL]
8cc#J)
(8bL
8aJ)
=28
8a
.
8r
.
4r
.
.
.
=29
8eL
8b^J
[4a
.
=30
8aL]
8ee^J
[4dd
.
*
=31
8ddL]
8cc#J
8bL
8aJ
=32
8a
*
8r
4r
*-
